CN4T1/180/aimg/tortilla.svg

<svg clip-rule="evenodd" fill-rule="evenodd" stroke-linejoin="round" stroke-miterlimit="2" viewBox="0 0 47 23" xmlns="http://www.w3.org/2000/svg"><g fill-rule="nonzero"><path d="m0 8.398c-.025-.068-.051-.136-.077-.204-.289.115-.578.229-.866.343.022.06.044.119.067.179zm-12.896 1.295c-.004.035-.007.07-.011.104h1.359v-.104zm9.978-.46c-.008-.071-.016-.142-.024-.213-2.568.187-5.136.375-7.703.562.004.094.008.188.012.282 1.086 0 2.179.078 3.256-.019 1.492-.135 2.973-.401 4.459-.612m-15.9-.154c-2.502.079-4.655-.78-6.982-1.917.758 1.255 1.564 1.963 2.717 2.083 1.316.137 2.643.172 3.966.238.048.002.103-.133.299-.404m21.334-7.478c-2.163 1.522-4.513 2.124-6.876 2.209-3.8.135-7.612-.087-11.418-.148-.666-.011-1.334.004-1.997.054-1.329.102-2.642.109-3.951-.222-.966-.244-1.953-.415-2.938-.576-.244-.041-.515.082-.828.139.775.951 1.475 1.322 2.577 1.383.902.049 1.808.041 2.707.117 1.607.136 3.208.374 4.816.461 1.568.085 3.144.013 4.716.046 2.326.049 4.659.263 6.977.153 1.736-.082 3.471-.49 5.173-.896.869-.207 1.584-.823 2.114-1.751-.337-.305-.674-.609-1.072-.969m-.586-1.493c-.074-.073-.147-.145-.221-.217-3.184 1.347-6.544 1.612-9.931 1.692-1.525.036-3.051.033-4.577.034-3.816.003-7.623-.052-11.308-1.271-.929-.306-1.913-.384-3.032.074.291.324.428.621.639.69 1.444.471 2.882 1.004 4.366 1.299 1.246.247 2.551.222 3.831.28 2.661.118 5.323.238 7.986.303 1.329.032 2.672-.176 3.99-.058 2.105.188 4.077-.268 6.01-.963.703-.253 1.335-.729 1.957-1.164.174-.122.197-.46.29-.699m-28.053 4.679c-.075.084-.151.169-.227.253.335.309.624.704 1.013.909 1.054.552 2.104 1.248 3.238 1.479 2.372.482 4.79.821 7.205.992 2.228.158 4.478.031 6.718.01 3.022-.028 5.976-.488 8.824-1.518.979-.354 1.935-.782 2.446-2.063-.655.168-1.153.263-1.629.424-1.868.633-3.784.967-5.755.926-3.942-.082-7.883-.184-11.825-.28-.714-.018-1.428-.043-2.142-.076-1.518-.07-3.041-.259-4.552-.186-1.23.059-2.356.045-3.314-.87m14.855-4.167c.842 0 1.649-.029 2.454.006 3.516.151 6.937-.282 10.188-1.691.644-.279 1.291-.641 1.804-1.11.773-.707.724-1.413-.137-2.004-.691-.474-1.463-.907-2.263-1.134-3.087-.88-6.296-1.061-9.465-1.186-3.505-.138-7.03-.008-10.493.887-2.123.549-4.273.964-6.257 1.934-1.205.589-1.329 1.69-.253 2.412.384.258.858.405 1.311.534 4.301 1.223 8.689 1.633 13.111 1.352m-21.409 8.56c.225.33.348.718.603.85 1.641.844 3.285 1.697 4.984 2.413.953.401 2.008.576 3.028.802 1.529.34 3.059.847 4.604.911 4.667.193 9.342.246 14.014.266 1.371.006 2.802-.084 4.103-.474 2.911-.875 5.774-1.924 8.621-2.993.962-.362 1.886-.911 2.705-1.535 1.037-.789 1.037-1.315.103-2.206-1.616-1.542-3.735-1.86-5.784-2.433-.202.565-.393.958-.481 1.372-.369 1.736-1.517 2.648-3.14 3.143-3.214.98-6.534 1.402-9.855 1.473-4.046.087-8.1-.154-12.15-.283-2.165-.068-4.147-.595-5.501-2.49-.761-1.064-1.861-1.104-2.957-.819-1.119.291-2.088.903-2.897 2.003m5.23-6.787c-1.27-1.278-1.37-1.706-.575-3.024.244-.404.201-.673.07-1.042-.275-.771-.027-1.454.586-1.907.642-.474 1.351-.9 2.092-1.189 2.54-.99 5.219-1.442 7.879-1.991 2.549-.525 5.088-.45 7.649-.328 1.277.061 2.562-.013 3.836.08 2.186.16 4.385.289 6.54.656 1.138.193 2.248.768 3.275 1.341 1.235.689 1.335 1.903.397 3.001-.992 1.16-.992 1.16-.813 2.515 1.662.92 1.796 1.212 1.366 3.225.35.138.72.301 1.103.432 1.124.387 2.271.716 3.375 1.154.936.371 1.77.906 2.292 1.844.538.967.521 2.01-.482 2.762-1.394 1.045-2.874 1.808-4.545 2.322-2.093.643-4.137 1.45-6.183 2.236-1.728.662-3.548.699-5.346.84-1.851.145-3.728.323-5.569.178-3.846-.304-7.722.185-11.554-.605-3.51-.723-6.904-1.722-10.094-3.365-.967-.497-1.913-1.146-1.831-2.338.068-1.01.927-1.606 1.8-2.067 1.01-.532 2.015-1.072 3.014-1.621.203-.112.528-.284.529-.431.008-1.05.606-1.854 1.189-2.678" fill="#231f20" transform="translate(34.78 7.229812)"/><path d="m0-.849c.809-1.101 1.778-1.712 2.896-2.003 1.097-.286 2.197-.246 2.958.819 1.354 1.894 3.335 2.421 5.501 2.49 4.05.129 8.103.37 12.15.283 3.321-.071 6.641-.493 9.855-1.473 1.622-.495 2.771-1.408 3.14-3.143.088-.414.279-.807.481-1.372 2.049.572 4.168.891 5.784 2.433.934.89.934 1.417-.103 2.206-.819.623-1.744 1.173-2.705 1.534-2.848 1.07-5.71 2.119-8.622 2.994-1.3.39-2.731.48-4.103.474-4.671-.02-9.346-.073-14.013-.266-1.545-.064-3.075-.571-4.604-.911-1.02-.227-2.075-.401-3.028-.802-1.699-.717-3.343-1.569-4.984-2.413-.255-.132-.378-.52-.603-.85" fill="#b7d880" transform="translate(2.1027 17.258812)"/><g fill="#fff2ad"><path d="m0-1.611c-.331-.705-.778-.906-1.577-.737-.513.108-1.027.268-.797 1.128.767-.126 1.492-.245 2.374-.391m-4.979 1.43c-.536-.165-.916-.396-1.272-.365-.497.044-1.003.234-1.448.47-.146.078-.164.496-.14.749.009.103.341.296.434.252.725-.343 1.656-.226 2.426-1.106m8.18 2.863c-4.423.282-8.81-.128-13.112-1.352-.452-.128-.926-.276-1.311-.534-1.075-.721-.951-1.823.253-2.411 1.985-.971 4.135-1.386 6.258-1.934 3.462-.896 6.987-1.026 10.493-.888 3.169.125 6.378.306 9.465 1.186.799.227 1.571.66 2.263 1.134.861.591.91 1.297.136 2.005-.512.469-1.16.831-1.803 1.109-3.251 1.409-6.672 1.842-10.189 1.691-.804-.035-1.612-.006-2.453-.006" transform="translate(20.3107 5.167812)"/><path d="m0-3.791c.958.915 2.084.929 3.313.87 1.511-.073 3.034.116 4.552.186.714.032 1.428.058 2.142.075 3.942.097 7.884.199 11.826.281 1.971.041 3.887-.293 5.754-.926.476-.161.975-.256 1.629-.424-.511 1.281-1.466 1.709-2.445 2.063-2.849 1.03-5.802 1.49-8.824 1.518-2.24.021-4.49.148-6.718-.01-2.416-.171-4.833-.51-7.205-.992-1.135-.231-2.185-.927-3.238-1.479-.39-.205-.679-.6-1.014-.909.077-.085.152-.169.228-.253" transform="translate(8.6569 15.807812)"/><path d="m0-2.797c-.092.239-.115.577-.29.699-.622.435-1.254.911-1.957 1.164-1.932.695-3.904 1.151-6.01.963-1.317-.118-2.66.091-3.99.058-2.663-.065-5.324-.185-7.985-.303-1.281-.058-2.585-.033-3.832-.28-1.483-.295-2.921-.828-4.365-1.299-.212-.069-.349-.366-.64-.69 1.12-.458 2.103-.38 3.032-.074 3.685 1.219 7.492 1.274 11.308 1.271 1.526-.001 3.053.002 4.578-.034 3.386-.08 6.747-.345 9.93-1.692.074.072.147.144.221.217" transform="translate(36.709 10.134812)"/><path d="m0-3.726c.397.359.735.664 1.072.969-.53.928-1.245 1.544-2.114 1.751-1.702.405-3.437.814-5.173.896-2.318.11-4.651-.104-6.977-.153-1.572-.033-3.148.038-4.716-.046-1.609-.087-3.209-.325-4.816-.461-.899-.076-1.805-.068-2.707-.118-1.102-.06-1.802-.431-2.577-1.382.313-.058.584-.18.828-.14.985.162 1.972.333 2.938.577 1.309.331 2.622.324 3.95.222.664-.051 1.332-.065 1.998-.054 3.806.061 7.618.283 11.418.147 2.363-.084 4.713-.686 6.876-2.208" transform="translate(37.296 12.556812)"/></g><path d="m-4.382-2.703c-.263.207-.396.266-.392.314.118 1.32.204 2.645.392 3.955.166 1.147.905 1.925 2.189 2.632-1.227-2.28-2.17-4.399-2.189-6.901" fill="#fff" transform="matrix(-.0391259 -.999234 -.999234 .0391259 13.089 12.035812)"/><path d="m0-.495c-1.486.21-2.966.477-4.459.611-1.077.097-2.169.019-3.255.019-.004-.094-.009-.188-.013-.282 2.568-.187 5.136-.374 7.704-.561.007.071.015.142.023.213" fill="#fff2ad" transform="translate(31.861 16.957812)"/><path d="m0-.104h1.349c-.001.035-.001.069-.001.104h-1.359c.004-.035.008-.069.011-.104" fill="#fff" transform="translate(21.883 17.026812)"/><path d="m-.484-.532c-.062.305-.124.609-.187.913.063.014.125.027.187.04.071-.301.142-.604.213-.906-.071-.016-.142-.032-.213-.047" fill="#fff2ad" transform="matrix(-.145826 -.98931 -.98931 .145826 34.183 15.226812)"/><path d="m0-.753c-.769.879-1.701.763-2.426 1.105-.093.044-.424-.148-.434-.251-.024-.253-.006-.671.141-.749.445-.236.95-.426 1.447-.47.357-.031.737.2 1.272.365" fill="#231f20" transform="translate(15.3312 5.739812)"/><path d="m0 .515c-.882.146-1.607.265-2.374.391-.23-.86.284-1.02.797-1.128.799-.169 1.246.032 1.577.737" fill="#231f20" transform="translate(20.3107 3.041812)"/></g></svg>

<?xml version="1.0" encoding="UTF-8" standalone="no"?>
<!DOCTYPE svg PUBLIC "-//W3C//DTD SVG 1.1//EN" "http://www.w3.org/Graphics/SVG/1.1/DTD/svg11.dtd">
<svg width="100%" height="100%" viewBox="0 0 47 23" version="1.1" xmlns="http://www.w3.org/2000/svg" xmlns:xlink="http://www.w3.org/1999/xlink" xml:space="preserve" xmlns:serif="http://www.serif.com/" style="fill-rule:evenodd;clip-rule:evenodd;stroke-linejoin:round;stroke-miterlimit:2;">
    <g transform="matrix(1,0,0,1,-249,-325)">
        <g transform="matrix(1,0,0,1,176.918,-0.242188)">
            <g transform="matrix(1,0,0,1,106.862,332.472)">
                <path d="M0,8.398C-0.025,8.33 -0.051,8.262 -0.077,8.194C-0.366,8.309 -0.655,8.423 -0.943,8.537C-0.921,8.597 -0.899,8.656 -0.876,8.716C-0.584,8.61 -0.292,8.504 0,8.398M-12.896,9.693C-12.9,9.728 -12.903,9.763 -12.907,9.797L-11.548,9.797L-11.548,9.693L-12.896,9.693ZM-2.918,9.233C-2.926,9.162 -2.934,9.091 -2.942,9.02C-5.51,9.207 -8.078,9.395 -10.645,9.582C-10.641,9.676 -10.637,9.77 -10.633,9.864C-9.547,9.864 -8.454,9.942 -7.377,9.845C-5.885,9.71 -4.404,9.444 -2.918,9.233M-18.818,9.079C-21.32,9.158 -23.473,8.299 -25.8,7.162C-25.042,8.417 -24.236,9.125 -23.083,9.245C-21.767,9.382 -20.44,9.417 -19.117,9.483C-19.069,9.485 -19.014,9.35 -18.818,9.079M2.516,1.601C0.353,3.123 -1.997,3.725 -4.36,3.81C-8.16,3.945 -11.972,3.723 -15.778,3.662C-16.444,3.651 -17.112,3.666 -17.775,3.716C-19.104,3.818 -20.417,3.825 -21.726,3.494C-22.692,3.25 -23.679,3.079 -24.664,2.918C-24.908,2.877 -25.179,3 -25.492,3.057C-24.717,4.008 -24.017,4.379 -22.915,4.44C-22.013,4.489 -21.107,4.481 -20.208,4.557C-18.601,4.693 -17,4.931 -15.392,5.018C-13.824,5.103 -12.248,5.031 -10.676,5.064C-8.35,5.113 -6.017,5.327 -3.699,5.217C-1.963,5.135 -0.228,4.727 1.474,4.321C2.343,4.114 3.058,3.498 3.588,2.57C3.251,2.265 2.914,1.961 2.516,1.601M1.93,0.108C1.856,0.035 1.783,-0.037 1.709,-0.109C-1.475,1.238 -4.835,1.503 -8.222,1.583C-9.747,1.619 -11.273,1.616 -12.799,1.617C-16.615,1.62 -20.422,1.565 -24.107,0.346C-25.036,0.04 -26.02,-0.038 -27.139,0.42C-26.848,0.744 -26.711,1.041 -26.5,1.11C-25.056,1.581 -23.618,2.114 -22.134,2.409C-20.888,2.656 -19.583,2.631 -18.303,2.689C-15.642,2.807 -12.98,2.927 -10.317,2.992C-8.988,3.024 -7.645,2.816 -6.327,2.934C-4.222,3.122 -2.25,2.666 -0.317,1.971C0.386,1.718 1.018,1.242 1.64,0.807C1.814,0.685 1.837,0.347 1.93,0.108M-26.123,4.787C-26.198,4.871 -26.274,4.956 -26.35,5.04C-26.015,5.349 -25.726,5.744 -25.337,5.949C-24.283,6.501 -23.233,7.197 -22.099,7.428C-19.727,7.91 -17.309,8.249 -14.894,8.42C-12.666,8.578 -10.416,8.451 -8.176,8.43C-5.154,8.402 -2.2,7.942 0.648,6.912C1.627,6.558 2.583,6.13 3.094,4.849C2.439,5.017 1.941,5.112 1.465,5.273C-0.403,5.906 -2.319,6.24 -4.29,6.199C-8.232,6.117 -12.173,6.015 -16.115,5.919C-16.829,5.901 -17.543,5.876 -18.257,5.843C-19.775,5.773 -21.298,5.584 -22.809,5.657C-24.039,5.716 -25.165,5.702 -26.123,4.787M-11.268,0.62C-10.426,0.62 -9.619,0.591 -8.814,0.626C-5.298,0.777 -1.877,0.344 1.374,-1.065C2.018,-1.344 2.665,-1.706 3.178,-2.175C3.951,-2.882 3.902,-3.588 3.041,-4.179C2.35,-4.653 1.578,-5.086 0.778,-5.313C-2.309,-6.193 -5.518,-6.374 -8.687,-6.499C-12.192,-6.637 -15.717,-6.507 -19.18,-5.612C-21.303,-5.063 -23.453,-4.648 -25.437,-3.678C-26.642,-3.089 -26.766,-1.988 -25.69,-1.266C-25.306,-1.008 -24.832,-0.861 -24.379,-0.732C-20.078,0.491 -15.69,0.901 -11.268,0.62M-32.677,9.18C-32.452,9.51 -32.329,9.898 -32.074,10.03C-30.433,10.874 -28.789,11.727 -27.09,12.443C-26.137,12.844 -25.082,13.019 -24.062,13.245C-22.533,13.585 -21.003,14.092 -19.458,14.156C-14.791,14.349 -10.116,14.402 -5.444,14.422C-4.073,14.428 -2.642,14.338 -1.341,13.948C1.57,13.073 4.433,12.024 7.28,10.955C8.242,10.593 9.166,10.044 9.985,9.42C11.022,8.631 11.022,8.105 10.088,7.214C8.472,5.672 6.353,5.354 4.304,4.781C4.102,5.346 3.911,5.739 3.823,6.153C3.454,7.889 2.306,8.801 0.683,9.296C-2.531,10.276 -5.851,10.698 -9.172,10.769C-13.218,10.856 -17.272,10.615 -21.322,10.486C-23.487,10.418 -25.469,9.891 -26.823,7.996C-27.584,6.932 -28.684,6.892 -29.78,7.177C-30.899,7.468 -31.868,8.08 -32.677,9.18M-27.447,2.393C-28.717,1.115 -28.817,0.687 -28.022,-0.631C-27.778,-1.035 -27.821,-1.304 -27.952,-1.673C-28.227,-2.444 -27.979,-3.127 -27.366,-3.58C-26.724,-4.054 -26.015,-4.48 -25.274,-4.769C-22.734,-5.759 -20.055,-6.211 -17.395,-6.76C-14.846,-7.285 -12.307,-7.21 -9.746,-7.088C-8.469,-7.027 -7.184,-7.101 -5.91,-7.008C-3.724,-6.848 -1.525,-6.719 0.63,-6.352C1.768,-6.159 2.878,-5.584 3.905,-5.011C5.14,-4.322 5.24,-3.108 4.302,-2.01C3.31,-0.85 3.31,-0.85 3.489,0.505C5.151,1.425 5.285,1.717 4.855,3.73C5.205,3.868 5.575,4.031 5.958,4.162C7.082,4.549 8.229,4.878 9.333,5.316C10.269,5.687 11.103,6.222 11.625,7.16C12.163,8.127 12.146,9.17 11.143,9.922C9.749,10.967 8.269,11.73 6.598,12.244C4.505,12.887 2.461,13.694 0.415,14.48C-1.313,15.142 -3.133,15.179 -4.931,15.32C-6.782,15.465 -8.659,15.643 -10.5,15.498C-14.346,15.194 -18.222,15.683 -22.054,14.893C-25.564,14.17 -28.958,13.171 -32.148,11.528C-33.115,11.031 -34.061,10.382 -33.979,9.19C-33.911,8.18 -33.052,7.584 -32.179,7.123C-31.169,6.591 -30.164,6.051 -29.165,5.502C-28.962,5.39 -28.637,5.218 -28.636,5.071C-28.628,4.021 -28.03,3.217 -27.447,2.393" style="fill:rgb(35,31,32);fill-rule:nonzero;"/>
            </g>
            <g transform="matrix(1,0,0,1,74.1847,342.501)">
                <path d="M0,-0.849C0.809,-1.95 1.778,-2.561 2.896,-2.852C3.993,-3.138 5.093,-3.098 5.854,-2.033C7.208,-0.139 9.189,0.388 11.355,0.457C15.405,0.586 19.458,0.827 23.505,0.74C26.826,0.669 30.146,0.247 33.36,-0.733C34.982,-1.228 36.131,-2.141 36.5,-3.876C36.588,-4.29 36.779,-4.683 36.981,-5.248C39.03,-4.676 41.149,-4.357 42.765,-2.815C43.699,-1.925 43.699,-1.398 42.662,-0.609C41.843,0.014 40.918,0.564 39.957,0.925C37.109,1.995 34.247,3.044 31.335,3.919C30.035,4.309 28.604,4.399 27.232,4.393C22.561,4.373 17.886,4.32 13.219,4.127C11.674,4.063 10.144,3.556 8.615,3.216C7.595,2.989 6.54,2.815 5.587,2.414C3.888,1.697 2.244,0.845 0.603,0.001C0.348,-0.131 0.225,-0.519 0,-0.849" style="fill:rgb(183,216,128);fill-rule:nonzero;"/>
            </g>
            <g transform="matrix(1,0,0,1,92.3927,330.41)">
                <path d="M0,-1.611C-0.331,-2.316 -0.778,-2.517 -1.577,-2.348C-2.09,-2.24 -2.604,-2.08 -2.374,-1.22C-1.607,-1.346 -0.882,-1.465 0,-1.611M-4.979,-0.181C-5.515,-0.346 -5.895,-0.577 -6.251,-0.546C-6.748,-0.502 -7.254,-0.312 -7.699,-0.076C-7.845,0.002 -7.863,0.42 -7.839,0.673C-7.83,0.776 -7.498,0.969 -7.405,0.925C-6.68,0.582 -5.749,0.699 -4.979,-0.181M3.201,2.682C-1.222,2.964 -5.609,2.554 -9.911,1.33C-10.363,1.202 -10.837,1.054 -11.222,0.796C-12.297,0.075 -12.173,-1.027 -10.969,-1.615C-8.984,-2.586 -6.834,-3.001 -4.711,-3.549C-1.249,-4.445 2.276,-4.575 5.782,-4.437C8.951,-4.312 12.16,-4.131 15.247,-3.251C16.046,-3.024 16.818,-2.591 17.51,-2.117C18.371,-1.526 18.42,-0.82 17.646,-0.112C17.134,0.357 16.486,0.719 15.843,0.997C12.592,2.406 9.171,2.839 5.654,2.688C4.85,2.653 4.042,2.682 3.201,2.682" style="fill:rgb(255,242,173);fill-rule:nonzero;"/>
            </g>
            <g transform="matrix(1,0,0,1,80.7389,341.05)">
                <path d="M0,-3.791C0.958,-2.876 2.084,-2.862 3.313,-2.921C4.824,-2.994 6.347,-2.805 7.865,-2.735C8.579,-2.703 9.293,-2.677 10.007,-2.66C13.949,-2.563 17.891,-2.461 21.833,-2.379C23.804,-2.338 25.72,-2.672 27.587,-3.305C28.063,-3.466 28.562,-3.561 29.216,-3.729C28.705,-2.448 27.75,-2.02 26.771,-1.666C23.922,-0.636 20.969,-0.176 17.947,-0.148C15.707,-0.127 13.457,0 11.229,-0.158C8.813,-0.329 6.396,-0.668 4.024,-1.15C2.889,-1.381 1.839,-2.077 0.786,-2.629C0.396,-2.834 0.107,-3.229 -0.228,-3.538C-0.151,-3.623 -0.076,-3.707 0,-3.791" style="fill:rgb(255,242,173);fill-rule:nonzero;"/>
            </g>
            <g transform="matrix(1,0,0,1,108.791,335.377)">
                <path d="M0,-2.797C-0.092,-2.558 -0.115,-2.22 -0.29,-2.098C-0.912,-1.663 -1.544,-1.187 -2.247,-0.934C-4.179,-0.239 -6.151,0.217 -8.257,0.029C-9.574,-0.089 -10.917,0.12 -12.247,0.087C-14.91,0.022 -17.571,-0.098 -20.232,-0.216C-21.513,-0.274 -22.817,-0.249 -24.064,-0.496C-25.547,-0.791 -26.985,-1.324 -28.429,-1.795C-28.641,-1.864 -28.778,-2.161 -29.069,-2.485C-27.949,-2.943 -26.966,-2.865 -26.037,-2.559C-22.352,-1.34 -18.545,-1.285 -14.729,-1.288C-13.203,-1.289 -11.676,-1.286 -10.151,-1.322C-6.765,-1.402 -3.404,-1.667 -0.221,-3.014C-0.147,-2.942 -0.074,-2.87 0,-2.797" style="fill:rgb(255,242,173);fill-rule:nonzero;"/>
            </g>
            <g transform="matrix(1,0,0,1,109.378,337.799)">
                <path d="M0,-3.726C0.397,-3.367 0.735,-3.062 1.072,-2.757C0.542,-1.829 -0.173,-1.213 -1.042,-1.006C-2.744,-0.601 -4.479,-0.192 -6.215,-0.11C-8.533,0 -10.866,-0.214 -13.192,-0.263C-14.764,-0.296 -16.34,-0.225 -17.908,-0.309C-19.517,-0.396 -21.117,-0.634 -22.724,-0.77C-23.623,-0.846 -24.529,-0.838 -25.431,-0.888C-26.533,-0.948 -27.233,-1.319 -28.008,-2.27C-27.695,-2.328 -27.424,-2.45 -27.18,-2.41C-26.195,-2.248 -25.208,-2.077 -24.242,-1.833C-22.933,-1.502 -21.62,-1.509 -20.292,-1.611C-19.628,-1.662 -18.96,-1.676 -18.294,-1.665C-14.488,-1.604 -10.676,-1.382 -6.876,-1.518C-4.513,-1.602 -2.163,-2.204 0,-3.726" style="fill:rgb(255,242,173);fill-rule:nonzero;"/>
            </g>
            <g transform="matrix(-0.0391259,-0.999234,-0.999234,0.0391259,85.171,337.278)">
                <path d="M-4.382,-2.703C-4.645,-2.496 -4.778,-2.437 -4.774,-2.389C-4.656,-1.069 -4.57,0.256 -4.382,1.566C-4.216,2.713 -3.477,3.491 -2.193,4.198C-3.42,1.918 -4.363,-0.201 -4.382,-2.703" style="fill:white;fill-rule:nonzero;"/>
            </g>
            <g transform="matrix(1,0,0,1,103.943,342.2)">
                <path d="M0,-0.495C-1.486,-0.285 -2.966,-0.018 -4.459,0.116C-5.536,0.213 -6.628,0.135 -7.714,0.135C-7.718,0.041 -7.723,-0.053 -7.727,-0.147C-5.159,-0.334 -2.591,-0.521 -0.023,-0.708C-0.016,-0.637 -0.008,-0.566 0,-0.495" style="fill:rgb(255,242,173);fill-rule:nonzero;"/>
            </g>
            <g transform="matrix(1,0,0,1,93.965,342.269)">
                <path d="M0,-0.104L1.349,-0.104C1.348,-0.069 1.348,-0.035 1.348,0L-0.011,0C-0.007,-0.035 -0.003,-0.069 0,-0.104" style="fill:white;fill-rule:nonzero;"/>
            </g>
            <g transform="matrix(-0.145826,-0.98931,-0.98931,0.145826,106.265,340.469)">
                <path d="M-0.484,-0.532C-0.546,-0.227 -0.608,0.077 -0.671,0.381C-0.608,0.395 -0.546,0.408 -0.484,0.421C-0.413,0.12 -0.342,-0.183 -0.271,-0.485C-0.342,-0.501 -0.413,-0.517 -0.484,-0.532" style="fill:rgb(255,242,173);fill-rule:nonzero;"/>
            </g>
            <g transform="matrix(1,0,0,1,87.4132,330.982)">
                <path d="M0,-0.753C-0.769,0.126 -1.701,0.01 -2.426,0.352C-2.519,0.396 -2.85,0.204 -2.86,0.101C-2.884,-0.152 -2.866,-0.57 -2.719,-0.648C-2.274,-0.884 -1.769,-1.074 -1.272,-1.118C-0.915,-1.149 -0.535,-0.918 0,-0.753" style="fill:rgb(35,31,32);fill-rule:nonzero;"/>
            </g>
            <g transform="matrix(1,0,0,1,92.3927,328.284)">
                <path d="M0,0.515C-0.882,0.661 -1.607,0.78 -2.374,0.906C-2.604,0.046 -2.09,-0.114 -1.577,-0.222C-0.778,-0.391 -0.331,-0.19 0,0.515" style="fill:rgb(35,31,32);fill-rule:nonzero;"/>
            </g>
        </g>
    </g>
</svg>
